flaticon/web-design/compass.svg

<svg xmlns="http://www.w3.org/2000/svg" width="32" height="32" viewBox="0 0 24 24">
    <path d="M16.351562 18.660156C16.207031 18.5 15.957031 18.492188 15.796875 18.636719 15.421875 18.984375 15.023438 19.316406 14.621094 19.628906 14.445312 19.761719 14.414062 20.007812 14.546875 20.179688 14.625 20.28125 14.742188 20.332031 14.859375 20.332031 14.941406 20.332031 15.027344 20.308594 15.097656 20.25 15.523438 19.925781 15.933594 19.578125 16.328125 19.21875 16.488281 19.070312 16.5 18.820312 16.351562 18.660156zM18.421875 16.296875C18.25 16.167969 18.003906 16.199219 17.871094 16.371094 17.5625 16.777344 17.226562 17.171875 16.882812 17.550781 16.738281 17.710938 16.746094 17.957031 16.90625 18.105469 16.984375 18.175781 17.078125 18.207031 17.171875 18.207031 17.28125 18.207031 17.386719 18.164062 17.464844 18.082031 17.824219 17.6875 18.171875 17.273438 18.496094 16.851562 18.628906 16.679688 18.597656 16.429688 18.421875 16.296875zM13.902344 20.632812C13.785156 20.449219 13.542969 20.394531 13.359375 20.511719 12.929688 20.789062 12.484375 21.046875 12.03125 21.285156 11.839844 21.382812 11.761719 21.621094 11.863281 21.816406 11.933594 21.949219 12.070312 22.027344 12.214844 22.027344 12.273438 22.027344 12.335938 22.011719 12.394531 21.980469 12.867188 21.734375 13.335938 21.460938 13.785156 21.175781 13.96875 21.058594 14.019531 20.816406 13.902344 20.632812zM11.152344 22.148438C11.070312 21.949219 10.839844 21.851562 10.636719 21.9375 10.167969 22.132812 9.679688 22.308594 9.195312 22.464844 8.988281 22.527344 8.871094 22.75 8.9375 22.957031 8.988281 23.125 9.144531 23.230469 9.3125 23.230469 9.351562 23.230469 9.390625 23.226562 9.429688 23.214844 9.9375 23.050781 10.445312 22.867188 10.941406 22.664062 11.140625 22.578125 11.234375 22.347656 11.152344 22.148438zM8.175781 23.160156C8.128906 22.949219 7.921875 22.816406 7.707031 22.863281 7.210938 22.972656 6.699219 23.0625 6.195312 23.128906 5.980469 23.15625 5.828125 23.355469 5.855469 23.570312 5.882812 23.769531 6.050781 23.914062 6.246094 23.914062 6.261719 23.914062 6.28125 23.910156 6.296875 23.910156 6.828125 23.839844 7.359375 23.746094 7.878906 23.628906 8.089844 23.582031 8.226562 23.375 8.175781 23.160156zM21.804688 7.601562C21.589844 7.574219 21.390625 7.726562 21.363281 7.941406 21.296875 8.449219 21.207031 8.957031 21.097656 9.457031 21.050781 9.667969 21.183594 9.878906 21.398438 9.925781 21.425781 9.929688 21.453125 9.933594 21.480469 9.933594 21.664062 9.933594 21.824219 9.808594 21.867188 9.625 21.980469 9.105469 22.074219 8.570312 22.144531 8.042969 22.171875 7.828125 22.019531 7.628906 21.804688 7.601562zM20.054688 13.613281C19.863281 13.511719 19.625 13.585938 19.523438 13.78125 19.289062 14.230469 19.03125 14.679688 18.753906 15.113281 18.636719 15.292969 18.691406 15.539062 18.875 15.65625 18.941406 15.695312 19.015625 15.714844 19.085938 15.714844 19.214844 15.714844 19.34375 15.652344 19.417969 15.535156 19.707031 15.085938 19.976562 14.617188 20.222656 14.144531 20.324219 13.949219 20.246094 13.714844 20.054688 13.613281zM21.195312 10.683594C20.988281 10.617188 20.765625 10.734375 20.699219 10.941406 20.546875 11.429688 20.371094 11.914062 20.175781 12.386719 20.09375 12.585938 20.1875 12.816406 20.386719 12.898438 20.4375 12.921875 20.488281 12.929688 20.539062 12.929688 20.691406 12.929688 20.839844 12.839844 20.902344 12.6875 21.105469 12.195312 21.292969 11.6875 21.453125 11.175781 21.515625 10.96875 21.402344 10.75 21.195312 10.683594zM22.808594 5.519531L20.296875 3.84375C20.296875 3.84375 20.292969 3.84375 20.292969 3.84375L20.292969 3.839844C20.292969 3.839844 20.289062 3.839844 20.289062 3.839844 20.28125 3.832031 20.269531 3.828125 20.261719 3.820312 20.257812 3.820312 20.253906 3.816406 20.25 3.816406 20.242188 3.8125 20.234375 3.808594 20.226562 3.804688 20.21875 3.804688 20.214844 3.800781 20.207031 3.800781 20.203125 3.796875 20.195312 3.792969 20.1875 3.792969 20.183594 3.789062 20.175781 3.789062 20.167969 3.785156 20.164062 3.785156 20.15625 3.785156 20.152344 3.78125 20.144531 3.78125 20.136719 3.78125 20.125 3.777344 20.121094 3.777344 20.117188 3.777344 20.113281 3.777344 20.101562 3.777344 20.09375 3.777344 20.082031 3.777344 20.078125 3.777344 20.078125 3.773438 20.074219 3.773438L6.464844 3.773438C6.160156 3.429688 5.785156 3.160156 5.367188 2.980469L5.367188.394531C5.367188.175781 5.191406 0 4.972656 0L3.296875 0C3.078125 0 2.902344.175781 2.902344.394531L2.902344 2.980469C1.761719 3.46875 1.015625 4.585938 1.015625 5.847656 1.015625 7.105469 1.761719 8.222656 2.902344 8.710938L2.902344 20.949219C2.902344 21.164062 3.078125 21.339844 3.296875 21.339844L3.75 21.339844 3.742188 23.605469C3.742188 23.820312 3.914062 24 4.132812 24 4.351562 24 4.527344 23.824219 4.527344 23.609375L4.539062 21.339844 4.972656 21.339844C5.191406 21.339844 5.367188 21.164062 5.367188 20.949219L5.367188 8.710938C5.785156 8.53125 6.160156 8.261719 6.464844 7.917969L20.074219 7.917969C20.078125 7.917969 20.078125 7.917969 20.078125 7.917969 20.09375 7.917969 20.109375 7.917969 20.125 7.914062 20.128906 7.914062 20.136719 7.914062 20.140625 7.914062 20.152344 7.910156 20.167969 7.90625 20.179688 7.902344 20.183594 7.902344 20.1875 7.902344 20.1875 7.902344 20.207031 7.894531 20.222656 7.890625 20.238281 7.882812 20.242188 7.882812 20.242188 7.878906 20.246094 7.878906 20.261719 7.871094 20.277344 7.863281 20.292969 7.851562 20.292969 7.851562 20.296875 7.851562 20.296875 7.851562L22.808594 6.175781C22.917969 6.101562 22.984375 5.976562 22.984375 5.847656 22.984375 5.714844 22.917969 5.59375 22.808594 5.519531zM3.6875.785156L4.582031.785156 4.582031 2.757812C4.285156 2.71875 3.984375 2.71875 3.6875 2.757812zM4.582031 20.554688L4.148438 20.554688C4.148438 20.554688 4.144531 20.554688 4.144531 20.554688L3.6875 20.554688 3.6875 8.933594C3.835938 8.957031 3.984375 8.964844 4.132812 8.964844 4.285156 8.964844 4.433594 8.957031 4.582031 8.933594zM5.972656 7.28125C5.683594 7.652344 5.296875 7.921875 4.855469 8.066406 4.855469 8.066406 4.855469 8.066406 4.851562 8.066406 4.386719 8.21875 3.882812 8.21875 3.417969 8.066406 2.449219 7.753906 1.800781 6.863281 1.800781 5.847656 1.800781 4.832031 2.449219 3.9375 3.417969 3.625 3.882812 3.476562 4.386719 3.476562 4.851562 3.625 4.855469 3.625 4.855469 3.628906 4.855469 3.628906 5.296875 3.769531 5.683594 4.042969 5.972656 4.410156 6.296875 4.824219 6.46875 5.320312 6.46875 5.847656 6.46875 6.371094 6.296875 6.867188 5.972656 7.28125zM19.683594 7.132812L6.976562 7.132812C7.105469 6.847656 7.191406 6.550781 7.230469 6.238281L19.683594 6.238281zM19.683594 5.453125L7.230469 5.453125C7.191406 5.144531 7.105469 4.84375 6.976562 4.5625L19.683594 4.5625zM20.46875 6.789062L20.46875 4.902344 21.882812 5.847656zM20.46875 6.789062"/>
    <path d="M 4.132812 4.40625 C 3.917969 4.40625 3.742188 4.582031 3.742188 4.796875 C 3.742188 5.015625 3.917969 5.191406 4.132812 5.191406 C 4.554688 5.191406 4.894531 5.53125 4.894531 5.953125 C 4.894531 6.371094 4.554688 6.710938 4.132812 6.710938 C 3.917969 6.710938 3.742188 6.886719 3.742188 7.105469 C 3.742188 7.320312 3.917969 7.5 4.132812 7.5 C 4.988281 7.5 5.679688 6.804688 5.679688 5.953125 C 5.679688 5.097656 4.988281 4.40625 4.132812 4.40625 Z M 4.132812 4.40625"/>
</svg>

<svg xmlns="http://www.w3.org/2000/svg" width="32" height="32" viewBox="0 0 24 24">
    <path d="M16.352 18.66a.394.394 0 0 0-.555-.023c-.375.347-.774.68-1.176.992a.392.392 0 1 0 .477.621c.425-.324.836-.672 1.23-1.031a.395.395 0 0 0 .024-.559zm0 0M18.422 16.297a.396.396 0 0 0-.55.074c-.31.406-.645.8-.99 1.18a.394.394 0 0 0 .024.554.402.402 0 0 0 .559-.023c.36-.395.707-.809 1.031-1.23a.394.394 0 0 0-.074-.555zm0 0M13.902 20.633a.393.393 0 0 0-.543-.121c-.43.277-.875.535-1.328.773a.393.393 0 1 0 .364.695c.472-.246.94-.52 1.39-.804a.392.392 0 0 0 .117-.543zm0 0M11.152 22.148a.392.392 0 0 0-.515-.21 18.68 18.68 0 0 1-1.442.527.39.39 0 0 0 .117.765c.04 0 .079-.003.118-.015a21.201 21.201 0 0 0 1.511-.55.398.398 0 0 0 .211-.517zm0 0M8.176 23.16a.391.391 0 0 0-.469-.297c-.496.11-1.008.2-1.512.266a.395.395 0 0 0 .051.785c.016 0 .035-.004.05-.004.532-.07 1.063-.164 1.583-.281a.388.388 0 0 0 .297-.469zm0 0M21.805 7.602a.395.395 0 0 0-.442.34 18.08 18.08 0 0 1-.265 1.515.393.393 0 0 0 .382.477.396.396 0 0 0 .387-.309c.113-.52.207-1.055.278-1.582a.395.395 0 0 0-.34-.441zm0 0M20.055 13.613a.392.392 0 0 0-.532.168c-.234.45-.492.899-.77 1.332a.393.393 0 0 0 .122.543.42.42 0 0 0 .21.059.392.392 0 0 0 .333-.18c.289-.45.559-.918.805-1.39a.394.394 0 0 0-.168-.532zm0 0M21.195 10.684a.397.397 0 0 0-.496.257c-.152.489-.328.973-.523 1.446a.392.392 0 0 0 .726.3c.203-.492.391-1 .551-1.511a.395.395 0 0 0-.258-.492zm0 0M22.809 5.52l-2.512-1.676h-.004V3.84h-.004c-.008-.008-.02-.012-.027-.02-.004 0-.008-.004-.012-.004l-.023-.011c-.008 0-.012-.004-.02-.004a.03.03 0 0 0-.02-.008c-.003-.004-.011-.004-.019-.008-.004 0-.012 0-.016-.004-.007 0-.015 0-.027-.004h-.043c-.004 0-.004-.004-.008-.004H6.464a3.104 3.104 0 0 0-1.097-.793V.395A.393.393 0 0 0 4.973 0H3.297a.393.393 0 0 0-.395.395V2.98a3.108 3.108 0 0 0-1.886 2.868c0 1.257.746 2.375 1.886 2.863v12.238c0 .215.176.39.395.39h.453l-.008 2.266a.393.393 0 0 0 .785.004l.012-2.27h.434a.393.393 0 0 0 .394-.39V8.711c.418-.18.793-.45 1.098-.793h13.613c.016 0 .031 0 .047-.004h.016l.039-.012h.008c.019-.007.035-.011.05-.02.004 0 .004-.003.008-.003a.291.291 0 0 0 .047-.027h.004l2.512-1.676a.396.396 0 0 0 0-.656zM3.687.785h.895v1.973a3.429 3.429 0 0 0-.894 0zm.895 19.77h-.434-.46V8.934c.148.023.296.03.445.03.152 0 .3-.007.449-.03zM5.972 7.28c-.288.371-.675.64-1.117.785h-.003a2.306 2.306 0 0 1-1.434 0 2.324 2.324 0 0 1-1.617-2.218c0-1.016.648-1.91 1.617-2.223a2.363 2.363 0 0 1 1.434 0c.003 0 .003.004.003.004.442.14.829.414 1.118.781.324.414.496.91.496 1.438 0 .523-.172 1.02-.496 1.433zm13.712-.148H6.977c.128-.285.214-.582.253-.895h12.454zm0-1.68H7.23a3.062 3.062 0 0 0-.253-.89h12.707zm.785 1.336V4.902l1.414.946zm0 0"/>
    <path d="M4.133 4.406a.392.392 0 0 0 0 .785.76.76 0 1 1 0 1.52.395.395 0 0 0 0 .79 1.548 1.548 0 0 0 0-3.095zm0 0"/>
</svg>
